web/public/images/star-filled.svg

<svg width="24" height="24" viewBox="0 0 24 24" fill="none" xmlns="http://www.w3.org/2000/svg">
<path d="M18.3749 14.7063L23.4999 10.4812C24.2249 9.88125 23.8499 8.70625 22.8999 8.65625L16.2999 8.25625C15.8999 8.23125 15.5499 7.98125 15.3999 7.60625L12.9749 1.40625C12.6249 0.53125 11.3999 0.53125 11.0499 1.40625L8.62493 7.58125C8.47493 7.95625 8.12493 8.20625 7.72493 8.23125L1.09993 8.63125C0.149933 8.68125 -0.225068 9.85625 0.499932 10.4563L5.62493 14.6562C5.92493 14.9062 6.07493 15.3313 5.97493 15.7063L4.29993 22.1313C4.07493 23.0312 5.04993 23.7563 5.84993 23.2563L11.4249 19.6813C11.7749 19.4563 12.1999 19.4563 12.5249 19.6813L18.1249 23.2563C18.9249 23.7563 19.8999 23.0312 19.6749 22.1313L17.9999 15.7312C17.9249 15.3562 18.0499 14.9563 18.3749 14.7063Z" fill="#F5A623"/>
</svg>

<svg xmlns="http://www.w3.org/2000/svg" width="24" height="24" fill="none"><path fill="#F5A623" d="m18.375 14.706 5.125-4.225c.725-.6.35-1.775-.6-1.825l-6.6-.4c-.4-.025-.75-.275-.9-.65l-2.425-6.2a1.034 1.034 0 0 0-1.925 0L8.625 7.581c-.15.375-.5.625-.9.65l-6.625.4c-.95.05-1.325 1.225-.6 1.825l5.125 4.2c.3.25.45.675.35 1.05L4.3 22.131c-.225.9.75 1.625 1.55 1.125l5.575-3.575a.98.98 0 0 1 1.1 0l5.6 3.575c.8.5 1.775-.225 1.55-1.125L18 15.731c-.075-.375.05-.775.375-1.025"/></svg>
